X:3
T:Les claquettes de Vendeuvre  [ok]
R:
S:
N:
A:Champagne
G:
O:France
Z:<anamnese@laposte.net>
M:2/4
L:1/8
Q:1/4=135
K:C
G/ | A>G F>D | DC C2 | Gc/c/ c2 | GB/B/ B>G | B>A G/F/E/D/ | A2 G>G :| C2 || A,2 
C>D EF | G>A GE | F>G FD | E2 CA, | C>D EF | G>A GE | F>G FD | C2 :|
